X:1
T:Title
%%score { ( 1 4 ) | ( 2 3 ) }
L:1/8
M:6/8
K:Eb
V:1 treble nm="Grand Piano"
V:4 treble 
V:2 bass 
V:3 bass 
V:1
 z3 z2[Q:1/4=100] G | E2 F G2 [B,FA] | [EGB]3 [B,EG]2 [B,EG] | [CEA]2 [CEA] [EG]2 [DF] | %4
[M:5/8] G-G- G3 |[M:1/8] G |[M:3/4] E2 F G2 [FA] | [GB]3 G2 G | F2 Bc B[CE=A] | %9
[M:5/8] [B,DB]-[B,DB]- [B,DB]3 |[M:1/8] [DFB] |[M:3/4] [GB]2 [GB] [Ge]2 [Bd] | [Ac]3 [GB]2 [Ge] | %13
 d2 dd c[Ad] |[M:5/8] [Ge]-[Ge]- [Ge]3 |[M:1/8] [GB] |[M:3/4] [GB]2 [GB] [Ge]2 [Bd] | %17
 [EAc]3 [EGB]2 [EAc] | [EGB]2 [B,FA] [B,EG]2 [A,DF] |[M:5/8] [G,E]-[G,E]- [G,E]3 |] %20
V:2
 z3 z2 [E,B,E] | [E,G,]2 [E,A,E] [E,B,E]2 E, | E,3 E,2 E, | A,,2 A,, [B,,B,]2 [B,,B,] | %4
[M:5/8] [E,B,E]-[E,B,E]- [E,B,E]3 |[M:1/8] [E,B,E] |[M:3/4] [E,G,]2 [E,A,E] [E,B,E]2 [E,B,] | %7
 [E,E]3 [E,B,E]2 [E,B,E] | z2 z E z2 |[M:5/8] B,,-B,,- B,,3 |[M:1/8] B,, | %11
[M:3/4] [E,E]2 [E,E] [E,E]2 [E,E] | [A,E]3 [E,E]2 [E,B,] | [B,A]2 [B,A][K:bass] [B,,B,]2 [B,,B,] | %14
[M:5/8] [E,B,]-[E,B,]- [E,B,]3 |[M:1/8] [E,E] |[M:3/4] [E,E]2 [E,E] [E,E]2 [E,E] | A,3 E,2 A,, | %18
 B,,2 B,, B,,2 B,, |[M:5/8] E,-E,- E,3 |] %20
V:3
 x6 | x6 | x6 | x6 |[M:5/8] x5 |[M:1/8] x |[M:3/4] x6 | x6 | [F,B,D]2 [F,DF][F,F]- [F,DF]F, | %9
[M:5/8] x5 |[M:1/8] x |[M:3/4] x6 | x6 | x3[K:bass] x3 |[M:5/8] x5 |[M:1/8] x |[M:3/4] x6 | x6 | %18
 x6 |[M:5/8] x5 |] %20
V:4
 x6 | x6 | x6 | x6 |[M:5/8] x5 |[M:1/8] x |[M:3/4] x6 | x6 | x6 |[M:5/8] x5 |[M:1/8] x | %11
[M:3/4] x6 | x6 | z2 z .A3 |[M:5/8] x5 |[M:1/8] x |[M:3/4] x6 | x6 | x6 |[M:5/8] x5 |] %20

